X:1
T:Title
%%score { ( 1 3 4 ) | ( 2 5 ) }
L:1/8
M:4/4
K:F
V:1 treble nm="Grand Piano"
V:3 treble 
V:4 treble 
V:2 bass 
V:5 bass 
V:1
 z4 z2 z[Q:1/4=100] A | [FA][GB][GB][FA] [FA][DF] [FA]2 |[M:3/4] z2 z2 z A | %3
 [G,DG][DF] [B,DB][DG][K:bass] [F,DF]2 | [E,^CE]4- [E,CE][K:treble][CG] | %5
[M:4/4] [^CG]A[G,CG][CF][K:bass] [E,CE]D[K:treble] [CG]2 |[M:3/4] [^CG]4- [CG][CG] | %7
 [DF]E [FA]>F E2 | D4- DF |[M:4/4] ED[B,C]D [B,E]3 E | DC .B,2 [B,D]3 D | [B,E]FGA B3 B | %12
 [FA]GAB [FA]3 [Gc] | [Gc]d c2 [GB]3 B | [GB]c B2 [A,FA]3 d | %15
 [Ac]B [FA]2 [A,^CE]3- [A,CE]/[G,CG]/ | [A,^CF]2[K:bass] [D,A,D]6 |] %17
V:2
 z4 z2 z F | [D,,D,]2 [D,B,]2 [D,,D,]2 [D,A,]2 |[M:3/4] [D,,D,]4 z D | z F, z G, B,,2 | %4
 A,,4- A,,[A,,E,] |[M:4/4] z ^C z F, A,,D, [A,,E,]2 |[M:3/4] [A,,E,]4- [A,,E,][A,,E,] | %7
 z ^C z z/ D/ [G,C]2 | [D,F,A,]6 |[M:4/4] B,B, z B, z2 z B, | .[B,,A,]2 B,,C z2 z B, | %11
 z B, [C,B,]2[K:treble] [DG]3 [DG] | [D,A,D][D,G,D][D,A,D][B,D] [D,A,D]3 [C,G,] | %13
 z[K:treble] G G2 z2 z G | z A G2 D,3 B | F,2 z2 z4 | A,,2 D,,6 |] %17
V:3
 x8 | x8 |[M:3/4] [FA]6 | x4[K:bass] x2 | x5[K:treble] x |[M:4/4] x4[K:bass] x2[K:treble] x2 | %6
[M:3/4] x6 | x6 | x6 |[M:4/4] x8 | x8 | x8 | x8 | x8 | x8 | x8 | x2[K:bass] x6 |] %17
V:4
 x8 | x8 |[M:3/4] z2 z A,3 | x4[K:bass] x2 | x5[K:treble] x |[M:4/4] x4[K:bass] x2[K:treble] x2 | %6
[M:3/4] x6 | x6 | x6 |[M:4/4] x8 | x8 | x8 | x8 | x8 | x8 | x8 | x2[K:bass] x6 |] %17
V:5
 x8 | x8 |[M:3/4] z2 z D,3 | B,,2 B,,2 z2 | x6 |[M:4/4] [A,,E,]2 A,,2 z4 |[M:3/4] x6 | %7
 A,,2 D,2 z2 | x6 |[M:4/4] C,2 C,2 C,4 | z4 B,,4 | C,2 z2[K:treble] [G,B,]4 | x8 | %13
 C,4[K:treble] B,4 | G,4 z4 | z G D,2 A,,3- A,,/A,,/ | x8 |] %17

